ix/messages_broken.svg

<svg viewBox="0 0 24 24" fill="none" xmlns="http://www.w3.org/2000/svg" height="1em" width="1em">
  <path d="M9.5 2C12.52 2 15.13 3.67001 16.3 6.07001C16.75 6.96001 17 7.95 17 9C17 12.87 13.64 16 9.5 16L8.57001 17.12L8.02 17.78C7.55 18.34 6.65 18.22 6.34 17.55L5 14.6C3.18 13.32 2 11.29 2 9C2 6.73 3.15 4.72 4.95 3.44" stroke="#292D32" stroke-width="1.5" stroke-linecap="round" stroke-linejoin="round"/>
  <path d="M22.0003 12.86C22.0003 15.15 20.8203 17.1801 19.0003 18.4601L17.6603 21.41C17.3503 22.08 16.4503 22.2101 15.9803 21.6401L14.5003 19.86C12.0803 19.86 9.92031 18.7901 8.57031 17.1201L9.50031 16.0001C13.6403 16.0001 17.0003 12.8701 17.0003 9.00006C17.0003 7.95006 16.7503 6.96007 16.3003 6.07007C17.9303 6.44007 19.3403 7.31006 20.3603 8.50006" stroke="#292D32" stroke-width="1.5" stroke-linecap="round" stroke-linejoin="round"/>
  <path d="M7 9H12" stroke="#292D32" stroke-width="1.5" stroke-linecap="round" stroke-linejoin="round"/>
</svg>

<svg viewBox="0 0 24 24" fill="none" xmlns="http://www.w3.org/2000/svg" height="1em" width="1em">
  <path d="M9.5 2c3.02 0 5.63 1.67 6.8 4.07.45.89.7 1.88.7 2.93 0 3.87-3.36 7-7.5 7l-.93 1.12-.55.66c-.47.56-1.37.44-1.68-.23L5 14.6C3.18 13.32 2 11.29 2 9c0-2.27 1.15-4.28 2.95-5.56" stroke="#292D32" stroke-width="1.5" stroke-linecap="round" stroke-linejoin="round"/>
  <path d="M22 12.86c0 2.29-1.18 4.32-3 5.6l-1.34 2.95c-.31.67-1.21.8-1.68.23l-1.48-1.78c-2.42 0-4.58-1.07-5.93-2.74L9.5 16c4.14 0 7.5-3.13 7.5-7 0-1.05-.25-2.04-.7-2.93 1.63.37 3.04 1.24 4.06 2.43M7 9h5" stroke="#292D32" stroke-width="1.5" stroke-linecap="round" stroke-linejoin="round"/>
</svg>
